apps/22/abiword.svg

<?xml version="1.0" encoding="UTF-8" standalone="no"?>
<!-- Created with Inkscape (http://www.inkscape.org/) -->

<svg
   xmlns:dc="http://purl.org/dc/elements/1.1/"
   xmlns:cc="http://creativecommons.org/ns#"
   xmlns:rdf="http://www.w3.org/1999/02/22-rdf-syntax-ns#"
   xmlns:svg="http://www.w3.org/2000/svg"
   xmlns="http://www.w3.org/2000/svg"
   xmlns:sodipodi="http://sodipodi.sourceforge.net/DTD/sodipodi-0.dtd"
   xmlns:inkscape="http://www.inkscape.org/namespaces/inkscape"
   version="1.1"
   width="22"
   height="22"
   id="svg2"
   inkscape:version="0.48.3.1 r9886"
   sodipodi:docname="abiword.svg">
  <sodipodi:namedview
     pagecolor="#ffffff"
     bordercolor="#666666"
     borderopacity="1"
     objecttolerance="10"
     gridtolerance="10"
     guidetolerance="10"
     inkscape:pageopacity="0"
     inkscape:pageshadow="2"
     inkscape:window-width="1920"
     inkscape:window-height="1033"
     id="namedview6"
     showgrid="true"
     inkscape:zoom="29.5"
     inkscape:cx="11.684022"
     inkscape:cy="11.121771"
     inkscape:window-x="-10"
     inkscape:window-y="25"
     inkscape:window-maximized="1"
     inkscape:current-layer="svg2"
     inkscape:snap-global="false">
    <inkscape:grid
       type="xygrid"
       id="grid2982"
       empspacing="5"
       visible="true"
       enabled="true"
       snapvisiblegridlinesonly="true" />
  </sodipodi:namedview>
  <defs
     id="defs4" />
  <metadata
     id="metadata7">
    <rdf:RDF>
      <cc:Work
         rdf:about="">
        <dc:format>image/svg+xml</dc:format>
        <dc:type
           rdf:resource="http://purl.org/dc/dcmitype/StillImage" />
        <dc:title />
      </cc:Work>
    </rdf:RDF>
  </metadata>
  <path
     sodipodi:nodetypes="ccccccccc"
     inkscape:connector-curvature="0"
     id="path2983"
     d="M 11.120744,2.9860881 C 8.5356039,3.0453665 2.9974391,14.173738 3.0069891,18.028717 c 0.057257,1.017489 1.0962452,0.954027 1.7832426,0.985234 4.5513693,-0.949841 10.6328293,-4.97289 10.8331993,-5.283053 0,0 -8.8431675,2.893741 -9.3441044,1.948957 C 5.7664017,14.713102 9.543927,6.4483619 11.132617,6.4870667 12.692669,6.5236788 19.011591,18.52142 19.011591,18.52142 18.949578,15.664055 17.609336,11.7695 15.980079,8.582267 14.350819,5.3957335 12.413551,2.9543572 11.120744,2.9860881 z"
     style="color:#000000;fill:#27303a;fill-opacity:0.753280819999999968;fill-rule:nonzero;stroke:none;stroke-width:1;marker:none;visibility:visible;display:inline;overflow:visible;enable-background:accumulate" />
  <path
     style="font-size:medium;font-style:normal;font-variant:normal;font-weight:normal;font-stretch:normal;text-indent:0;text-align:start;text-decoration:none;line-height:normal;letter-spacing:normal;word-spacing:normal;text-transform:none;direction:ltr;block-progression:tb;writing-mode:lr-tb;text-anchor:start;baseline-shift:baseline;color:#000000;fill:#f1f3f5;fill-opacity:0.90288714000000003;fill-rule:nonzero;stroke:none;stroke-width:2;marker:none;visibility:visible;display:inline;overflow:visible;enable-background:accumulate;font-family:Sans;-inkscape-font-specification:Sans"
     d="M 11.09375 1.78125 C 10.345381 1.7984104 9.7892082 2.1581247 9.28125 2.5625 C 8.7732918 2.9668753 8.2908311 3.4599152 7.8125 4.0625 C 6.8558378 5.2676696 5.9099157 6.8468305 5.03125 8.53125 C 4.1525843 10.215669 3.362561 12.004411 2.78125 13.65625 C 2.199939 15.308089 1.8093972 16.778752 1.8125 18.03125 A 1.20012 1.20012 0 0 0 1.8125 18.09375 C 1.838292 18.552081 1.9854209 19.024606 2.28125 19.375 C 2.5770791 19.725394 2.9597497 19.926244 3.28125 20.03125 C 3.9242506 20.241261 4.4707325 20.206064 4.75 20.21875 A 1.20012 1.20012 0 0 0 5.03125 20.1875 C 7.5339695 19.665199 10.236118 18.381462 12.40625 17.1875 C 13.491316 16.590519 14.460214 16.015433 15.15625 15.5625 C 15.398905 15.404597 15.569377 15.282348 15.75 15.15625 C 16.719508 16.892871 17.9375 19.09375 17.9375 19.09375 A 1.20012 1.20012 0 0 0 20.21875 18.5 C 20.149112 15.291309 18.750685 11.333762 17.0625 8.03125 C 16.216656 6.3769352 15.282696 4.9228827 14.34375 3.8125 C 13.404804 2.7021173 12.509542 1.7465005 11.09375 1.78125 z M 11.125 3 C 12.417807 2.9682691 14.33949 5.4072165 15.96875 8.59375 C 17.598007 11.780983 18.937987 15.673885 19 18.53125 C 19 18.53125 12.685052 6.5366121 11.125 6.5 C 9.53631 6.4612952 5.7683251 14.720747 6.28125 15.6875 C 6.7821869 16.632284 15.625 13.71875 15.625 13.71875 C 15.42463 14.028913 9.3326193 18.050159 4.78125 19 C 4.0942526 18.968793 3.057257 19.048739 3 18.03125 C 2.99045 14.176271 8.5398599 3.0592784 11.125 3 z M 11.09375 7.875 C 11.342295 8.1348121 11.686798 8.5708016 12.0625 9.09375 C 12.780445 10.093073 13.616428 11.465273 14.4375 12.84375 C 13.837503 13.036143 12.661941 13.422123 10.84375 13.90625 C 9.7284427 14.203221 8.5984765 14.467982 7.78125 14.59375 C 7.725156 14.60235 7.709373 14.58655 7.65625 14.59375 C 7.695886 14.457932 7.697407 14.374757 7.75 14.21875 C 8.0328012 13.37988 8.4817797 12.298203 9 11.25 C 9.5182203 10.201797 10.088644 9.1644837 10.59375 8.46875 C 10.790429 8.1978449 10.950727 8.0212868 11.09375 7.875 z "
     id="path3823" />
</svg>

<?xml version="1.0" encoding="UTF-8"?>
<svg id="a" width="22" height="22" version="1.1" xmlns="http://www.w3.org/2000/svg" xmlns:cc="http://creativecommons.org/ns#" xmlns:dc="http://purl.org/dc/elements/1.1/" xmlns:rdf="http://www.w3.org/1999/02/22-rdf-syntax-ns#">
	<metadata id="c">
		<rdf:RDF>
			<cc:Work rdf:about="">
				<dc:format>image/svg+xml</dc:format>
				<dc:type rdf:resource="http://purl.org/dc/dcmitype/StillImage"/>
				<dc:title/>
			</cc:Work>
		</rdf:RDF>
	</metadata>
	<defs id="e">
		<style id="current-color-scheme" type="text/css">.ColorScheme-Text {color:#090d11;}.ColorScheme-Background{color:#ffffff;}</style>
	</defs>
	<path id="d" class="ColorScheme-Text" d="m11.121 2.9861c-2.5851 0.059278-8.1233 11.188-8.1138 15.043 0.057257 1.0175 1.0962 0.95403 1.7832 0.98523 4.5514-0.94984 10.633-4.9729 10.833-5.2831 0 0-8.8432 2.8937-9.3441 1.949-0.51292-0.96675 3.2646-9.2315 4.8533-9.1928 1.5601 0.036612 7.879 12.034 7.879 12.034-0.06201-2.8574-1.4023-6.7519-3.0315-9.9392-1.6293-3.1865-3.5665-5.6279-4.8593-5.5962z" style="fill-opacity:.75;fill:currentColor"/>
	<path id="b" class="ColorScheme-Background" d="m11.094 1.7812c-0.74837 0.01716-1.3045 0.37687-1.8125 0.78125-0.50796 0.40438-0.99042 0.89742-1.4688 1.5-0.95666 1.2052-1.9026 2.7843-2.7812 4.4688-0.87867 1.6844-1.6687 3.4732-2.25 5.125s-0.97185 3.1225-0.96875 4.375a1.2001 1.2001 0 0 0 0 0.0625c0.025792 0.45833 0.17292 0.93086 0.46875 1.2812s0.6785 0.55124 1 0.65625c0.643 0.21001 1.1895 0.17481 1.4688 0.1875a1.2001 1.2001 0 0 0 0.28125 -0.03125c2.5027-0.5223 5.2049-1.806 7.375-3 1.0851-0.59698 2.054-1.1721 2.75-1.625 0.24266-0.1579 0.41313-0.28015 0.59375-0.40625 0.96951 1.7366 2.1875 3.9375 2.1875 3.9375a1.2001 1.2001 0 0 0 2.2812 -0.59375c-0.06964-3.2087-1.4681-7.1662-3.1562-10.469-0.84584-1.6543-1.7798-3.1084-2.7188-4.2188s-1.8342-2.066-3.25-2.0312zm0.03125 1.2188c1.2928-0.031731 3.2145 2.4072 4.8438 5.5938 1.6293 3.1872 2.9692 7.0801 3.0312 9.9375 0 0-6.3149-11.995-7.875-12.031-1.5887-0.038705-5.3567 8.2207-4.8438 9.1875 0.50094 0.94478 9.3438-1.9688 9.3438-1.9688-0.20037 0.31016-6.2924 4.3314-10.844 5.2812-0.687-0.03121-1.724 0.04874-1.7812-0.96875-0.00955-3.855 5.5399-14.972 8.125-15.031zm-0.03125 4.875c0.24854 0.25981 0.59305 0.6958 0.96875 1.2188 0.71794 0.99932 1.5539 2.3715 2.375 3.75-0.6 0.19239-1.7756 0.57837-3.5938 1.0625-1.1153 0.29697-2.2453 0.56173-3.0625 0.6875-0.056094 0.0086-0.071877-0.0072-0.125 0 0.039636-0.13582 0.041157-0.21899 0.09375-0.375 0.2828-0.83887 0.73178-1.9205 1.25-2.9688 0.51822-1.0482 1.0886-2.0855 1.5938-2.7812 0.19668-0.27091 0.35698-0.44746 0.5-0.59375z" style="fill-opacity:.5;fill:currentColor"/>
</svg>
